images/faq-return.svg

<svg width="42" height="37" viewBox="0 0 42 37" fill="none" xmlns="http://www.w3.org/2000/svg">
<path d="M3.97833 16.3201C4.18469 16.4026 4.42402 16.4026 4.63039 16.3036L11.0764 13.3736C11.4891 13.1755 11.6624 12.6803 11.4643 12.2676C11.2745 11.8714 10.8041 11.6898 10.3996 11.8714L5.8849 13.9266C8.03908 7.48053 14.0394 3.17217 20.9477 3.17217C28.1861 3.17217 34.5165 8.00878 36.3405 14.9335C36.456 15.3709 36.91 15.6351 37.3474 15.5195C37.7848 15.4039 38.049 14.95 37.9334 14.5126C35.9195 6.86979 28.937 1.52148 20.9476 1.52148C13.3296 1.52148 6.70192 6.27553 4.30842 13.3901L2.41013 8.64435C2.26984 8.21514 1.79939 7.97581 1.37018 8.1161C0.94097 8.25638 0.701643 8.72684 0.841928 9.15605C0.850207 9.18909 0.866688 9.22205 0.88317 9.25509L3.51608 15.8579C3.59864 16.0643 3.76369 16.2376 3.97833 16.3201Z" fill="#36A6F2" stroke="#36A6F2" stroke-width="1.5"/>
<path d="M40.4029 28.4968C40.3873 28.4657 40.3798 28.4307 40.3669 28.3983L37.7535 21.8445C37.6709 21.6381 37.5059 21.4648 37.2913 21.3823C37.085 21.2997 36.8456 21.308 36.6393 21.3988L30.1932 24.3288C29.7723 24.5021 29.5742 24.9891 29.7475 25.41C29.9208 25.8309 30.4078 26.029 30.8287 25.8557C30.8452 25.8474 30.8617 25.8392 30.8782 25.8309L35.3929 23.7758C33.2223 30.2218 27.2136 34.5302 20.3137 34.5302C13.0753 34.5302 6.74485 29.6936 4.92084 22.7689C4.80531 22.3315 4.35134 22.0673 3.91393 22.1829C3.47651 22.2984 3.21235 22.7524 3.32795 23.1898C5.33357 30.8409 12.3244 36.1809 20.3138 36.1809C27.9318 36.1809 34.5512 31.4268 36.9529 24.3122L38.8512 29.058C39.0081 29.4872 39.4785 29.7101 39.9077 29.5532C40.3368 29.3965 40.5597 28.926 40.4029 28.4968Z" fill="#36A6F2" stroke="#36A6F2" stroke-width="1.5"/>
</svg>

<svg width="42" height="37" fill="none" xmlns="http://www.w3.org/2000/svg"><path d="M3.978 16.32a.816.816 0 00.652-.016l6.446-2.93a.829.829 0 00.388-1.106c-.19-.397-.66-.578-1.064-.397l-4.515 2.056C8.039 7.48 14.039 3.172 20.948 3.172c7.238 0 13.569 4.837 15.392 11.761a.827.827 0 001.007.587.827.827 0 00.586-1.007C35.92 6.87 28.937 1.52 20.948 1.52c-7.618 0-14.246 4.755-16.64 11.87L2.41 8.643a.83.83 0 00-1.04-.528.83.83 0 00-.528 1.04c.008.033.025.066.041.1l2.633 6.602a.82.82 0 00.462.462zM40.403 28.497c-.016-.031-.023-.066-.036-.099l-2.613-6.553a.821.821 0 00-.463-.463.85.85 0 00-.652.017l-6.446 2.93a.829.829 0 00-.446 1.081c.174.42.66.619 1.082.446l.05-.025 4.514-2.055c-2.17 6.446-8.18 10.754-15.08 10.754-7.238 0-13.568-4.836-15.392-11.761a.827.827 0 00-1.007-.586.827.827 0 00-.586 1.007c2.006 7.65 8.996 12.99 16.986 12.99 7.618 0 14.237-4.753 16.639-11.868l1.898 4.746a.823.823 0 001.057.495.823.823 0 00.495-1.056z" fill="#36A6F2" stroke="#36A6F2" stroke-width="1.5"/></svg>
